src/icons/svgs/16/arrow-trend-up.svg

<svg width="16" height="16" viewBox="0 0 16 16" fill="none" xmlns="http://www.w3.org/2000/svg">
<path d="M15 5.25V9C15 9.41414 14.6522 9.75 14.2222 9.75C13.7923 9.75 13.4444 9.41414 13.4444 9V7.06172L9.32708 11.032C9.17639 11.1773 8.97708 11.25 8.77778 11.25C8.57847 11.25 8.37965 11.1768 8.22799 11.0303L5.66667 8.56172L2.32708 11.782C2.1759 11.9273 1.97684 12 1.77778 12C1.33347 12 1 11.6496 1 11.25C1 11.0581 1.07595 10.8661 1.22786 10.7198L5.11675 6.96984C5.26806 6.82266 5.46736 6.75 5.66667 6.75C5.86597 6.75 6.06479 6.82324 6.21646 6.96973L8.77778 9.44062L12.3458 6H10.3333C9.90337 6 9.55556 5.66414 9.55556 5.25C9.55556 4.83586 9.90337 4.5 10.3333 4.5H14.2222C14.6306 4.5 15 4.81406 15 5.25Z" fill="black"/>
</svg>

<svg width="16" height="16" viewBox="0 0 16 16" xmlns="http://www.w3.org/2000/svg">
    <path d="M15 5.25V9c0 .414-.348.75-.778.75a.764.764 0 0 1-.778-.75V7.062l-4.117 3.97a.79.79 0 0 1-.55.218.789.789 0 0 1-.549-.22L5.667 8.562l-3.34 3.22a.79.79 0 0 1-.55.218.764.764 0 0 1-.777-.75c0-.192.076-.384.228-.53l3.889-3.75a.786.786 0 0 1 .55-.22c.199 0 .398.073.55.22l2.56 2.47L12.347 6h-2.013a.764.764 0 0 1-.777-.75c0-.414.347-.75.777-.75h3.89c.408 0 .777.314.777.75z"/>
</svg>
